packages/foundations/assets/icons/functional/images/logos/s_bahn_24_inverted.svg

<svg width="24" height="24" viewBox="0 0 24 24" fill="none" xmlns="http://www.w3.org/2000/svg">
<g clip-path="url(#clip0_2212_4622)">
<path fill-rule="evenodd" clip-rule="evenodd" d="M11.47 4.30006C8.90505 4.30006 6.05005 5.92806 6.05005 8.95506C6.05005 11.5781 7.79905 12.5811 9.70605 13.2091C11.068 13.5981 11.47 13.6691 12.587 14.0591C13.705 14.4491 14.513 14.9661 14.513 15.9991C14.513 16.8861 13.385 17.7161 11.983 17.7161C9.78305 17.7161 7.51705 16.4001 6.17005 14.4241V17.5041C7.48505 18.7261 9.89705 19.7001 11.983 19.7001C15.727 19.7001 17.95 16.9381 17.95 14.5651C17.95 11.9421 16.236 10.9911 14.338 10.4241C12.91 10.0291 13.268 10.1721 11.857 9.78806C10.447 9.40506 9.34905 8.90506 9.34905 7.62806C9.34905 6.77806 10.102 6.05306 11.418 6.05306C13.643 6.05306 15.823 7.29306 17.044 8.81306V6.24906C15.465 4.9779 13.4962 4.2896 11.469 4.30006H11.47Z" fill="#1A1C1F"/>
</g>
<defs>
<clipPath id="clip0_2212_4622">
<rect width="24" height="24" fill="white"/>
</clipPath>
</defs>
</svg>

<svg xmlns="http://www.w3.org/2000/svg" width="24" height="24" fill="none"><g clip-path="url(#a)"><path fill="#1A1C1F" fill-rule="evenodd" d="M11.47 4.3c-2.565 0-5.42 1.628-5.42 4.655 0 2.623 1.75 3.626 3.656 4.254 1.362.39 1.764.46 2.881.85 1.118.39 1.926.907 1.926 1.94 0 .887-1.128 1.717-2.53 1.717-2.2 0-4.466-1.316-5.813-3.292v3.08c1.315 1.222 3.727 2.196 5.813 2.196 3.744 0 5.967-2.762 5.967-5.135 0-2.623-1.714-3.574-3.612-4.14-1.428-.396-1.07-.253-2.481-.637-1.41-.383-2.508-.883-2.508-2.16 0-.85.753-1.575 2.069-1.575 2.225 0 4.405 1.24 5.626 2.76V6.25A8.82 8.82 0 0 0 11.469 4.3z" clip-rule="evenodd"/></g><defs><clipPath id="a"><path fill="#fff" d="M0 0h24v24H0z"/></clipPath></defs></svg>
